src/img/d10.svg

<?xml version="1.0" encoding="UTF-8"?>
<svg width="41px" height="41px" viewBox="0 0 41 41" version="1.1" xmlns="http://www.w3.org/2000/svg" xmlns:xlink="http://www.w3.org/1999/xlink" xmlns:cc="http://creativecommons.org/ns#">
		<!-- Generator: Sketch 53.2 (72643) - https://sketchapp.com -->
		<title>d10</title>
		<desc>Created with Sketch.</desc>
		<g id="Page-1" stroke="none" stroke-width="1" fill="none" fill-rule="evenodd">
				<g id="rpg_dice" transform="translate(-52.000000, -11.000000)" fill="#000000" fill-rule="nonzero">
						<path d="M63.713068,51.256339 C54.621365,50.92963 54.562389,50.910771 53.330278,47.936193 C52.413142,45.72203 52.276895,40.858932 52.805983,29.222312 C53.199153,20.575042 53.821408,13.205232 54.188772,12.844962 C54.556137,12.484682 62.282967,11.872472 71.359506,11.484492 C86.749218,10.826652 88.022581,10.908852 90.2386,12.703282 L92.6149,14.627492 L91.87739,33.313742 L91.13987,52 L81.998289,51.792458 C76.97042,51.67831 68.74207,51.437056 63.713068,51.256339 Z M89.706728,50.242672 C90.63105,48.747086 91.62671,15.000332 90.74531,15.041222 C90.25658,15.063922 87.835856,16.076392 85.365925,17.291222 C81.777888,19.055982 80.323846,20.605622 78.132678,25.000002 C76.624324,28.025002 75.382676,30.969172 75.373462,31.542602 C75.364262,32.116032 78.506708,36.308514 82.356708,40.859226 C86.206708,45.409937 89.356708,49.403266 89.356708,49.73329 C89.356708,50.063314 89.189029,50.145833 88.984088,49.916667 C88.779147,49.6875 85.577931,45.9 81.870274,41.5 C78.162617,37.1 74.759491,33.359732 74.307773,33.188292 C73.856054,33.016852 70.194771,34.418002 66.171587,36.301952 C62.148404,38.185898 57.619208,40.229018 56.106708,40.842217 C54.2124,41.610208 53.356708,42.682223 53.356708,44.287432 C53.356708,48.903062 55.226016,49.919418 64.356708,50.26821 C82.843715,50.974412 89.258482,50.96795 89.706728,50.24267 L89.706728,50.242672 Z M73.356708,47.926776 C73.356708,47.188469 72.415733,47.019354 70.701565,47.449582 C69.038102,47.867085 67.765429,47.661324 67.294085,46.898674 C66.233372,45.182404 67.274975,43 69.154826,43 C70.472453,43 70.428967,43.226678 68.896347,44.347357 C66.524641,46.08159 68.514298,47.521211 71.255371,46.054234 C72.675916,45.293981 73.315864,45.348539 73.645384,46.25799 C73.999212,47.234526 74.573185,47.217039 76.330698,46.17618 C77.560111,45.448077 78.268843,45.333157 77.905658,45.920803 C76.788956,47.727659 73.356708,49.241198 73.356708,47.926776 L73.356708,47.926776 Z M84.54169,32.924312 L84.726673,26.500002 L85.097571,31.854412 C85.459999,37.086554 85.512867,37.168653 87.412589,35.449432 C90.28161,32.853002 89.779176,34.254482 86.856708,37 L84.356708,39.348628 L84.54169,32.924312 Z M62.356708,37.318376 C64.281708,36.539886 67.372336,34.912282 69.224771,33.701472 C72.863846,31.322862 80.747414,19.987472 79.573372,18.821732 C78.835283,18.088862 55.232701,12.759762 54.827957,13.234592 C54.703531,13.380562 54.279754,19.481572 53.886231,26.792392 L53.170735,40.08478 L56.013722,39.409297 C57.577364,39.037781 60.431708,38.096867 62.356708,37.318376 L62.356708,37.318376 Z M60.159925,24.800172 C58.253681,21.862462 58.896855,20.000002 61.817597,20.000002 C64.578635,20.000002 66.649797,22.232852 66.179068,24.701962 C65.658673,27.431582 61.907133,27.492792 60.159925,24.800162 L60.159925,24.800172 Z M65.356708,23.968612 C65.356708,21.718812 63.181898,20.469362 60.834061,21.370312 C59.565986,21.856922 59.522608,22.292782 60.574608,23.977302 C62.240495,26.644812 65.356708,26.639152 65.356708,23.968302 L65.356708,23.968612 Z" id="d10"></path>
				</g>
		</g>
</svg>

<!-- Created with Inkscape (http://www.inkscape.org/) -->
<!-- License: Creative Commons -->
<svg width="41" height="41" xmlns="http://www.w3.org/2000/svg"><defs><style>*{fill:#fff}</style></defs><g id="Page-1" stroke="none" stroke-width="1" fill="none" fill-rule="evenodd"><g id="rpg_dice" transform="translate(-52 -11)" fill="#000" fill-rule="nonzero"><path d="M63.713 51.256c-9.092-.326-9.15-.345-10.383-3.32-.917-2.214-1.053-7.077-.524-18.714.393-8.647 1.015-16.017 1.383-16.377.367-.36 8.094-.973 17.17-1.36 15.39-.658 16.664-.576 18.88 1.218l2.376 1.924-.738 18.687L91.14 52l-9.142-.208c-5.028-.114-13.256-.355-18.285-.536zm25.994-1.013c.924-1.496 1.92-35.243 1.038-35.202-.488.023-2.91 1.035-5.38 2.25-3.587 1.765-5.041 3.315-7.232 7.709-1.509 3.025-2.75 5.97-2.76 6.543-.009.573 3.134 4.766 6.984 9.316 3.85 4.55 7 8.544 7 8.874 0 .33-.168.413-.373.184-.205-.23-3.406-4.017-7.114-8.417-3.707-4.4-7.11-8.14-7.562-8.312-.452-.171-4.113 1.23-8.136 3.114-4.024 1.884-8.553 3.927-10.065 4.54-1.895.768-2.75 1.84-2.75 3.445 0 4.616 1.869 5.632 11 5.981 18.487.706 24.901.7 25.35-.025zm-16.35-2.316c0-.739-.941-.908-2.655-.477-1.664.417-2.937.211-3.408-.551-1.06-1.717-.019-3.899 1.86-3.899 1.318 0 1.275.227-.258 1.347-2.371 1.735-.382 3.174 2.36 1.707 1.42-.76 2.06-.705 2.39.204.353.977.927.959 2.685-.082 1.23-.728 1.938-.843 1.575-.255-1.117 1.807-4.55 3.32-4.55 2.006zm11.185-15.003l.185-6.424.37 5.354c.363 5.233.416 5.315 2.316 3.595 2.869-2.596 2.366-1.195-.556 1.551l-2.5 2.349.185-6.425zm-22.185 4.394c1.925-.778 5.015-2.406 6.868-3.617 3.639-2.378 11.522-13.714 10.348-14.88-.738-.732-24.34-6.061-24.745-5.586-.124.146-.548 6.247-.942 13.557l-.715 13.293 2.843-.676c1.563-.371 4.418-1.312 6.343-2.09zM60.16 24.8c-1.906-2.938-1.263-4.8 1.658-4.8 2.76 0 4.832 2.233 4.361 4.702-.52 2.73-4.272 2.79-6.02.098zm5.197-.831c0-2.25-2.175-3.5-4.523-2.599-1.268.487-1.311.923-.26 2.607 1.666 2.668 4.783 2.662 4.783-.009z" id="d10"/></g></g></svg>
